X:5
T: Saw Ye My Father
N: HA005
O: Europa, Mitteleuropa, Deutschland
N: Vorschläge, Bindungen weggelassen
M: 2/4
L: 1/16
K: D
D2 | D3EF3G | A4A3
A | B4e3d | c4B2
A2 | d4d2c2 | c2B2B2A2 | A6
G2 | F3EF3d | F4E3
D | E3DE2F2 | G4A3
B | A4F3A | A2G2F2E2 | D6

